input cipher.mp.inc

beginfig(1);
begingroup
    save k;
    save s;
    draw_cipher;
    pickup pencircle scaled 2;
    input lpath1.mp.inc
endgroup;
endfig;

beginfig(2);
begingroup
    save k;
    save s;
    draw_cipher;
    pickup pencircle scaled 2;
    input lpath2.mp.inc
endgroup;
endfig;

end;
